assets/svg/filter.svg

<svg width="12" height="14" viewBox="0 0 12 14" fill="none" xmlns="http://www.w3.org/2000/svg">
<path d="M11.79 1.61564C12.3029 0.959102 11.8351 0 11.002 0H1.00186C0.168707 0 -0.299092 0.959101 0.213831 1.61564L5.03983 7.72867C5.1772 7.90449 5.25181 8.1212 5.25181 8.34432V13.7961C5.25181 13.9743 5.46724 14.0635 5.59323 13.9375L6.60536 12.9254C6.69913 12.8316 6.75181 12.7044 6.75181 12.5718V8.34432C6.75181 8.1212 6.82643 7.90449 6.96379 7.72867L11.79 1.61564Z" fill="#464F60"/>
</svg>

<svg xmlns="http://www.w3.org/2000/svg" width="12" height="14" viewBox="0 0 12 14"><path d="M11.79 1.616A1 1 0 0 0 11.002 0h-10a1 1 0 0 0-.788 1.616L5.04 7.729a1 1 0 0 1 .212.615v5.452a.2.2 0 0 0 .341.142l1.012-1.013a.5.5 0 0 0 .147-.353V8.344a1 1 0 0 1 .212-.615z"/></svg>
